X:1
T: Delting Bridal March
C:
R:Jig
Q:180
K:Em
M:6/8
L:1/16
|:D2|G4G2 G4A2|B4d2 B2A2G2|A2A2A2 A4G2|A4c2 B4A2|
G4G2 G4A2|B4d2 B2A2G2|A2A2A2 B2A2G2|E6 E4d2|
e4e2 e4d2|e4g2 d2B2G2|G2G2G2 G4A2|B4A2 B2c2d2|
e2e2e2 e4d2|e4g2 d2B2G2|A2A2A2 B2A2G2|E6E4:|
